app/dist/common/images/lifevantage-corporation.svg

<svg height="18" viewBox="0 0 18 18" width="18" xmlns="http://www.w3.org/2000/svg"><path d="m18 0h-18v18h18z" fill="#f0f3fa"/><path d="m8.32 8.32c-1.45.33-1.48 1.02 0 1.35.3 1.49 1.06 1.44 1.34 0 1.47-.26 1.5-1.04 0-1.34-.3-1.48-1.03-1.49-1.34 0z" fill="#01a7e1"/><path d="m13 5.86-4-2.29-4.74 2.71v5.42l4.74 2.71 4.74-2.7v-4.53a.76.76 0 0 0 -.74-1.32zm.06 1.38a.76.76 0 0 1 -.45-.89l-3.61-2.1-4.07 2.37v4.74l4.07 2.37 4.06-2.37z" fill="#172a55" fill-rule="evenodd"/></svg>

<!-- by TradingView --><svg xmlns="http://www.w3.org/2000/svg" width="18" height="18" viewBox="0 0 18 18"><path d="M18 0H0v18h18V0Z" fill="#F0F3FA"/><path d="M8.32 8.32c-1.45.33-1.48 1.02 0 1.35.3 1.49 1.06 1.44 1.34 0 1.47-.26 1.5-1.04 0-1.34-.3-1.48-1.03-1.49-1.34 0Z" fill="#01A7E1"/><path fill-rule="evenodd" d="M13 5.86 9 3.57 4.26 6.28v5.42L9 14.41l4.74-2.7V7.18A.76.76 0 0 0 13 5.86Zm.06 1.38a.76.76 0 0 1-.45-.89L9 4.25 4.93 6.62v4.74L9 13.73l4.06-2.37V7.24Z" fill="#172A55"/></svg>
